assets/images/icons/triangleLine.svg

<svg width="1599" height="11" viewBox="0 0 1599 11" fill="none" xmlns="http://www.w3.org/2000/svg">
<line y1="5.5" x2="1600" y2="5.5" stroke="#C4C4C4" stroke-dasharray="4 4"/>
<path d="M97 5.5L85.75 0.736861V10.2631L97 5.5Z" fill="#C4C4C4"/>
<path d="M215 5.5L203.75 0.736861V10.2631L215 5.5Z" fill="#C4C4C4"/>
<path d="M333 5.5L321.75 0.736861V10.2631L333 5.5Z" fill="#C4C4C4"/>
<path d="M451 5.5L439.75 0.736861V10.2631L451 5.5Z" fill="#C4C4C4"/>
<path d="M569 5.5L557.75 0.736861V10.2631L569 5.5Z" fill="#C4C4C4"/>
<path d="M687 5.5L675.75 0.736861V10.2631L687 5.5Z" fill="#C4C4C4"/>
<path d="M805 5.5L793.75 0.736861V10.2631L805 5.5Z" fill="#C4C4C4"/>
<path d="M923 5.5L911.75 0.736861V10.2631L923 5.5Z" fill="#C4C4C4"/>
<path d="M1041 5.5L1029.75 0.736861V10.2631L1041 5.5Z" fill="#C4C4C4"/>
<path d="M1159 5.5L1147.75 0.736861V10.2631L1159 5.5Z" fill="#C4C4C4"/>
<path d="M1277 5.5L1265.75 0.736861V10.2631L1277 5.5Z" fill="#C4C4C4"/>
<path d="M1395 5.5L1383.75 0.736861V10.2631L1395 5.5Z" fill="#C4C4C4"/>
<path d="M1513 5.5L1501.75 0.736861V10.2631L1513 5.5Z" fill="#C4C4C4"/>
</svg>

<svg width="1599" height="11" fill="none" xmlns="http://www.w3.org/2000/svg"><path stroke="#C4C4C4" stroke-dasharray="4 4" d="M0 5.5h1600"/><path d="M97 5.5L85.75.737v9.526L97 5.5zm118 0L203.75.737v9.526L215 5.5zm118 0L321.75.737v9.526L333 5.5zm118 0L439.75.737v9.526L451 5.5zm118 0L557.75.737v9.526L569 5.5zm118 0L675.75.737v9.526L687 5.5zm118 0L793.75.737v9.526L805 5.5zm118 0L911.75.737v9.526L923 5.5zm118 0L1029.75.737v9.526L1041 5.5zm118 0L1147.75.737v9.526L1159 5.5zm118 0L1265.75.737v9.526L1277 5.5zm118 0L1383.75.737v9.526L1395 5.5zm118 0L1501.75.737v9.526L1513 5.5z" fill="#C4C4C4"/></svg>
